X: 210
T: Da guandeng
L: 1/16
M: 2/4
K: Bb
z2 b2 a2 g a [I:setbarnb 1]| 
g2> d2f4- | 
f2 g2 d'2 c' d' | 
b2> b2 g2 b2- | 
b2 c'2 a g a2 | 
g2> d2f4 | 
g2> b2 g2 d2 | 
f2> d2f4 | 
b2 g2d'4 | 
d f g fd4 | 
b2 b g b2 g f | 
d f g fd4 | 
b2> g2 a2 g f | 
d f g fd4 | 
d f d2 c d f2- | 
f g b gb4- | 
b2 d'2 ^c'2 d'2 | 
d' f' d'2 c'2 a2 | 
g2> f2 d2 f2 | 
g2 a gf4 |]

@@@ Tune index: 9084
